flaticon/arrows/download.svg

<svg xmlns="http://www.w3.org/2000/svg" width="32" height="23pt" viewBox="0 0 24 23">
    <path d="M11.636719 16.984375C11.683594 17.03125 11.742188 17.066406 11.804688 17.089844 11.867188 17.113281 11.933594 17.128906 12 17.128906 12.066406 17.128906 12.132812 17.113281 12.195312 17.089844 12.257812 17.066406 12.3125 17.03125 12.363281 16.984375L18.488281 11.113281C18.6875 10.921875 18.6875 10.609375 18.488281 10.421875 18.289062 10.230469 17.964844 10.230469 17.765625 10.421875L12.511719 15.457031 12.511719.488281C12.511719.21875 12.28125 0 12 0 11.71875 0 11.488281.21875 11.488281.488281L11.488281 15.457031 6.234375 10.421875C6.035156 10.230469 5.710938 10.230469 5.511719 10.421875 5.3125 10.609375 5.3125 10.921875 5.511719 11.113281zM.765625 21.042969L23.234375 21.042969C23.515625 21.042969 23.746094 20.824219 23.746094 20.554688 23.746094 20.28125 23.515625 20.0625 23.234375 20.0625L.765625 20.0625C.484375 20.0625.253906 20.28125.253906 20.554688.253906 20.824219.484375 21.042969.765625 21.042969zM23.234375 22.019531L.765625 22.019531C.484375 22.019531.253906 22.238281.253906 22.511719.253906 22.78125.484375 23 .765625 23L23.234375 23C23.515625 23 23.746094 22.78125 23.746094 22.511719 23.746094 22.238281 23.515625 22.019531 23.234375 22.019531zM23.234375 22.019531"/>
</svg>

<svg xmlns="http://www.w3.org/2000/svg" width="32" height="23pt" viewBox="0 0 24 23">
    <path d="M11.637 16.984a.561.561 0 0 0 .363.145.561.561 0 0 0 .363-.145l6.125-5.87c.2-.192.2-.505 0-.692a.527.527 0 0 0-.722 0l-5.254 5.035V.488c0-.27-.23-.488-.512-.488a.501.501 0 0 0-.512.488v14.969l-5.254-5.035a.527.527 0 0 0-.722 0c-.2.187-.2.5 0 .691zm0 0M.766 21.043h22.468a.501.501 0 0 0 .512-.488.502.502 0 0 0-.512-.492H.766a.502.502 0 0 0-.512.492c0 .27.23.488.512.488zm0 0M23.234 22.02H.766a.502.502 0 0 0-.512.492c0 .27.23.488.512.488h22.468a.501.501 0 0 0 .512-.488.502.502 0 0 0-.512-.492zm0 0"/>
</svg>
